storage/app/icons/phosphoricons/fill/camera-plus-fill.svg

<svg xmlns="http://www.w3.org/2000/svg" fill="currentColor" viewBox="0 0 256 256"><path d="M208 56h-27.72L169 39.12A16 16 0 0 0 155.72 32h-55.44A16 16 0 0 0 87 39.12L75.72 56H48a24 24 0 0 0-24 24v112a24 24 0 0 0 24 24h160a24 24 0 0 0 24-24V80a24 24 0 0 0-24-24m-48 88h-24v24a8 8 0 0 1-16 0v-24H96a8 8 0 0 1 0-16h24v-24a8 8 0 0 1 16 0v24h24a8 8 0 0 1 0 16"/></svg>

<svg xmlns="http://www.w3.org/2000/svg" viewBox="0 0 256 256" fill="currentColor"><path d="M208,56H180.28L169,39.12A16,16,0,0,0,155.72,32H100.28A16,16,0,0,0,87,39.12L75.72,56H48A24,24,0,0,0,24,80V192a24,24,0,0,0,24,24H208a24,24,0,0,0,24-24V80A24,24,0,0,0,208,56Zm-48,88H136v24a8,8,0,0,1-16,0V144H96a8,8,0,0,1,0-16h24V104a8,8,0,0,1,16,0v24h24a8,8,0,0,1,0,16Z"/></svg>
